X:7
T:Battle of Aughrim, The
R:march
Z:id:hn-march-7
M:2/4
L:1/8
Q:1/4=100
K:Ador
|:EA AB/d/|ed cA|BG G/F/G/A/|B/G/A/G/ ED|
EA AB/d/|ee/d/ ea/g/|ed B/e/d/B/|A2 A2:|
|:a/b/a/g/ ef/g/|a/b/a/g/ ef/g/|aa/f/ gg/e/|dB G2|
a/b/a/g/ ef/g/|a/b/a/g/ ee/d/|Be dB|A2 A2:|
P:variations
|:EA A/B/c/d/|ed cA|BG G/F/G/A/|BG ED|
EA A/B/c/d/|ee/d/ ea/g/|a/g/e/d/ B/e/d/B/|A2 A2:|
|:a>g ef/g/|a/b/a/g/ ef/g/|af ge|d/e/d/B/ Ga|
a>g ef/g/|a/b/a/g/ ed|Be dB|A2 A2:|
P:version 2
|:EA AB/d/|ed/B/ c>A|BG G>A|BA/G/ ED|
EA AB/d/|ed e/a/a/g/|e/g/e/d/ B/A/G/B/|A2 A2:|
|:ae ef/g/|a/b/a/g/ ef/g/|a/b/a/f/ ge|d/e/d/B/ Gf/g/|
ae ef/g/|a/b/a/g/ e>d|Be dB|A2 A2:|

